web/img/Paypal-icon.svg

<svg width="17" height="24" viewBox="0 0 17 24" fill="none" xmlns="http://www.w3.org/2000/svg">
<path fill-rule="evenodd" clip-rule="evenodd" d="M6.7809 5.47076C6.88543 5.41103 6.99976 5.38008 7.11553 5.38017H11.971C12.546 5.38017 13.0823 5.42507 13.5724 5.51971C13.7095 5.54595 13.8459 5.57728 13.9814 5.61365C14.1735 5.66451 14.3634 5.72676 14.5503 5.80017C14.7912 5.89672 15.0156 6.00917 15.2218 6.14085C15.4649 4.27998 15.2201 3.0145 14.3816 1.86814C13.4583 0.605993 11.7908 0.0648804 9.65679 0.0648804H3.46288C3.02679 0.0648804 2.6558 0.445861 2.58745 0.962417L0.00864554 20.5882C-0.0426127 20.9759 0.207122 21.3259 0.53348 21.3259H4.35759L6.34984 6.16533C6.3896 5.86283 6.55077 5.60314 6.7809 5.47076Z" fill="#9EAEFF"/>
<path fill-rule="evenodd" clip-rule="evenodd" d="M15.1586 6.57613C14.3422 11.6082 11.5473 13.3487 7.97787 13.3487H6.16039C5.72436 13.3487 5.35608 13.7297 5.28834 14.2464L4.0937 23.3342C4.04906 23.6729 4.26734 23.9798 4.55291 23.9798H7.77608C8.15751 23.9797 8.48224 23.6467 8.54185 23.1946L8.57324 22.9975L9.18072 18.3775L9.21986 18.1221C9.27946 17.6701 9.60415 17.3371 9.98555 17.3369H10.4679C13.5903 17.3369 16.0351 15.8148 16.7495 11.4124C17.0477 9.57271 16.8934 8.03671 16.1046 6.95782C15.8653 6.63104 15.5681 6.36116 15.222 6.14087C15.2032 6.28312 15.1829 6.42728 15.1586 6.57613V6.57613Z" fill="#A9B2E1"/>
<path fill-rule="evenodd" clip-rule="evenodd" d="M14.3678 5.73204C14.2405 5.68743 14.112 5.64794 13.9825 5.61363C13.8469 5.57786 13.7105 5.54674 13.5734 5.52033C13.0828 5.42505 12.5469 5.38007 11.9714 5.38007H7.11655C7.00068 5.37975 6.88627 5.41097 6.78191 5.47138C6.55151 5.60336 6.39019 5.86325 6.35078 6.16595L5.31886 14.0174L5.28906 14.2463C5.35694 13.7297 5.72516 13.3486 6.16125 13.3486H7.97873C11.5481 13.3486 14.343 11.6089 15.1594 6.57609C15.1837 6.42725 15.2041 6.28301 15.2228 6.14084C15.0161 6.00987 14.7923 5.8967 14.5513 5.80078C14.4905 5.77659 14.4293 5.75368 14.3679 5.73204" fill="#6673B4"/>
</svg>

<svg width="17" height="24" fill="none" xmlns="http://www.w3.org/2000/svg"><path fill-rule="evenodd" clip-rule="evenodd" d="M6.78 5.47a.672.672 0 0 1 .336-.09h4.855c.575 0 1.111.045 1.601.14a5.74 5.74 0 0 1 .978.28c.241.097.466.21.672.34.243-1.86-.002-3.125-.84-4.272C13.458.606 11.79.065 9.657.065H3.463c-.436 0-.807.38-.876.897L.01 20.588c-.052.388.198.738.524.738h3.825L6.35 6.166c.04-.303.2-.563.43-.695z" fill="#9EAEFF"/><path fill-rule="evenodd" clip-rule="evenodd" d="M15.159 6.576c-.817 5.032-3.612 6.773-7.181 6.773H6.16c-.436 0-.804.38-.872.897l-1.194 9.088c-.045.339.173.646.459.646h3.223c.382 0 .706-.333.766-.785l.031-.198.608-4.62.039-.255c.06-.452.384-.785.766-.785h.482c3.122 0 5.567-1.522 6.282-5.925.298-1.84.143-3.375-.645-4.454a3.228 3.228 0 0 0-.883-.817c-.019.142-.04.286-.063.435z" fill="#A9B2E1"/><path fill-rule="evenodd" clip-rule="evenodd" d="M14.368 5.732a5.164 5.164 0 0 0-.795-.212 8.433 8.433 0 0 0-1.602-.14H7.117a.672.672 0 0 0-.335.091c-.23.132-.392.392-.431.695l-1.032 7.851-.03.23c.068-.517.436-.898.872-.898H7.98c3.57 0 6.364-1.74 7.18-6.773.025-.149.045-.293.064-.435a4.046 4.046 0 0 0-.855-.409" fill="#6673B4"/></svg>
